X:1
T:Prozor prema zalazu
T:Prozor prema zalazu 
T:Đani Maršan
T:Dunja Rajniš
%%score { 1 | 2 }
L:1/8
Q:1/4=84
M:4/4
K:D
V:1 treble nm="Piano" snm="Pno."
V:2 bass 
V:1
 z F[DB][Ec] [Fd][Ec][DB][B,F] | [A,F]3 [B,G] [B,G]4 | z [A,A][Cc][Dd] [Ee][Cc][A,A][G,G] | %3
 [DG]3 [DF] [DF]3 F/G/ | F3 E E4 |: F>F- F2 z2 EC | D(C/B,/) B,2 z2 z F | FBBd dBBF | %8
 FG G2 z2 z A | Acce eGGA | GF F2 z FFG |1 FE E2 z4 :|2 FE E2 z CCD || B,4 z4 | z dde ff e(d/e/) | %15
 e3 c/B/ A2 z2 | z eef gg f(e/f/) | f6 z2 | z dde ff e(d/e/) | e3 (c/B/) A z z2 | %20
 z eef gg f(e/d/) | d4 z d d(d/e/) | c c3 z4 | z FBc{/c} d(3c/d/c/ BF | F3{/F} G G4 | %25
 z ccd{/d} ecAG | G3 F F/4G/4F3/2- F2 | z DDE FFED | E3 (3B,/C/B,/ A,4 | z EEF GG F/4G/4F/E | %30
 D4 z DDE | C4 z CCD | B,4 B2 G2 |:[K:Eb] G>G- G2 z2 FD | E(D/C/) C2 z2 z [Gg] | %35
 [Gg][cc'][cc'][ee'] [ee'][cc'][cc'][Gg] | [Gg][Aa] [Aa]2- [Aa]2 z [Bb] | %37
 [Bb][dd'][dd'][ff'] [ff'][Aa][Aa][Bb] | [Aa]2 [Gg]2 [Gg]-[Gg][Gg][Aa] |1 [Gg]3 [Ff]- [Ff]4 :|2 %40
 [Gg]2 [Ff]2- [Ff]2 [Dd][Ee] || [Cc]4 z4 | z eef ggfe | f3 (d/c/) B2 z2 | z ffg aa g(f/g/) | %45
 g6 z2 | z eef gg f(e/f/) | f3 (d/c/) B z z2 | z ffg aa g(f/e/) | e4 z e e(e/f/) | d d3- d4 | %51
 z2{/c} d2 d2 (d/e/)d | c c3- c4 | CGcd edcG | CGBd edcG | [CEGc]8 |] %56
V:2
 B,,F,D,F, D,A,F,A, | E,B,G,B, E,B,G,B, | A,,E,C,E, A,,=G,E,=G, | D,A,F,A, F,D,A,D, | %4
 F,,A,, C,4 C,F, |: D,B,F,B, F,,A,, C,2 | F,D,B,,[B,,B,] F,,F,/D,/ B,, z | F,,2 B,,2 A,,F,D,F, | %8
 [E,G,][G,B,] [G,B,]2 A,,C,E, z | A,,E,C,E, C,G,E,G, | D,A,F,A, A,,D,F,A,, |1 F,A,C,A, C,2 A,2 :|2 %12
 F,,2 A,2 C,2 C,2 || B,,D,F,B, B,4 | D,A,F,A, D,A,F,A, | A,,E,C,E, A,,E,C,E, | %16
 E,,B,,G,,B,, E,,B,,G,,B,, | [D,F,]4 [D,A,]4 | D,A,F,A, D,/A,/F, A, z | %19
 A,,/E,/C,/E,/ E,/C,/A,,/E,,/ A,,A,, A,,/E,/ z | E,,B,,G,,B,, E,,/B,,/G,, B,, z | %21
 B,,F,D,F,{/A,,} B,,F,D,F, | [F,A,]4 [F,A,]4 | B,,F,D,F, D,A,F,A, | E,,B,,G,,B,, E,,B,,G,,B,, | %25
 A,,E,C,E, A,,E,C, z | D,A,F,A, D,A,{/E,}F,A, | A,,D,A,,F, A,,F,A,,D, | A,,E,C,E, A,,C,E,A, | %29
 E,,G,,B,,E, E,,B,,G,,B,, | B,,F,D,F, B,,B,,D,,B,, | [F,A,]2 [F,A,]2 A,F,C,A,, | %32
 D,,B,,D,,F,, G,,D,B,,D, |:[K:Eb] C,G,E,G, G,,D,B,,D, | C,E,G,C C,G,E,G, | C,G,G,E, E,G,G,C, | %36
 F,,C,A,,C, A,,F,C,F, | B,,F,D,F, B,,F,D,F, | E,,/A,,/C,/E,,E,,C,/ C,/A,,/E,/A,,E, z/ |1 %39
 G,,D,B,,D, [G,,D,]4 :|2 G,,D,B,,D, G,,B,, D,2 || C,G,E,G, [B,,D,F,]2 [D,F,A,]2 | %42
 E,B,G,B, E,B,G,B, | B,,F,D,F, [B,,D,F,]2 [B,,D,F,]2 | F,,C,A,,C, F,,C,A,,C, | E,4 G,C C/G,/E, | %46
 E,,B,,G,,B,, E,,B,,G,,B,, | B,F, D,B,,/B,,D,F,/ B,,2 | F,A,CA, F,,C,A,,C, | C,G,E,G, C,G, G,2- | %50
 G,B,DB, [G,,B,,D,]2 z2 |{/F,,} G,,D,B,,D, G,,D,B,,D, | C,G,E,G, C,C,G,C, | C,,G,C,D,, E,,D,C,B,, | %54
 C,E, G,2 G,2 E,C, | G,2 E,C, [C,,C]4 |] %56

